flaticon/transport/crane-2.svg

<svg xmlns="http://www.w3.org/2000/svg" width="32" height="32" viewBox="0 0 24 24">
    <path d="M4.394531 14.394531L11.980469 14.394531C12.21875 14.394531 12.378906 14.234375 12.378906 13.996094L12.378906 4.8125 21.964844 4.8125 21.964844 6.011719C21.964844 6.25 22.125 6.410156 22.363281 6.410156 22.800781 6.410156 23.160156 6.769531 23.160156 7.207031 23.160156 7.648438 22.800781 8.007812 22.363281 8.007812 21.921875 8.007812 21.5625 7.648438 21.5625 7.207031 21.5625 6.96875 21.40625 6.808594 21.164062 6.808594 20.925781 6.808594 20.765625 6.96875 20.765625 7.207031 20.765625 8.085938 21.484375 8.804688 22.363281 8.804688 23.242188 8.804688 23.960938 8.085938 23.960938 7.207031 23.960938 6.46875 23.449219 5.839844 22.761719 5.660156L22.761719 4.53125 23.921875 2.214844C24 2.097656 24 1.9375 23.921875 1.816406 23.839844 1.695312 23.679688 1.617188 23.5625 1.617188L5.191406 1.617188C4.953125 1.617188 4.792969 1.777344 4.792969 2.015625L4.792969 7.207031.398438 7.207031C.160156 7.207031 0 7.367188 0 7.605469L0 10.800781C0 10.921875.0390625 11.042969.160156 11.121094L4.152344 14.316406C4.234375 14.355469 4.3125 14.394531 4.394531 14.394531zM22.125 4.011719L12.179688 4.011719 11.5 3.214844 10.835938 2.414062 22.921875 2.414062zM.796875 8.007812L5.191406 8.007812C5.429688 8.007812 5.589844 7.847656 5.589844 7.605469L5.589844 6.410156 7.988281 6.410156C8.226562 6.410156 8.386719 6.25 8.386719 6.011719 8.386719 5.769531 8.226562 5.609375 7.988281 5.609375L5.589844 5.609375 5.589844 4.8125 9.585938 4.8125C9.824219 4.8125 9.984375 4.652344 9.984375 4.414062 9.984375 4.171875 9.824219 4.011719 9.585938 4.011719L5.589844 4.011719 5.589844 2.414062 9.785156 2.414062 11.582031 4.574219 11.582031 13.597656 4.550781 13.597656.796875 10.601562zM5.191406 18.789062C4.753906 18.789062 4.394531 19.148438 4.394531 19.585938 4.394531 20.027344 4.753906 20.386719 5.191406 20.386719 5.628906 20.386719 5.988281 20.027344 5.988281 19.585938 5.988281 19.148438 5.628906 18.789062 5.191406 18.789062zM19.167969 18.789062C18.730469 18.789062 18.371094 19.148438 18.371094 19.585938 18.371094 20.027344 18.730469 20.386719 19.167969 20.386719 19.605469 20.386719 19.964844 20.027344 19.964844 19.585938 19.964844 19.148438 19.605469 18.789062 19.167969 18.789062zM19.167969 18.789062"/>
    <path d="M23.640625 12.28125L20.167969 8.445312C19.886719 8.167969 19.527344 8.007812 19.167969 8.007812L15.496094 8.007812C14.855469 8.007812 14.375 8.527344 14.375 9.125L14.375 15.195312 1.199219 15.195312 1.199219 19.027344C1.199219 19.546875 1.636719 19.988281 2.15625 19.988281L2.425781 19.988281C2.613281 21.351562 3.769531 22.382812 5.191406 22.382812 6.613281 22.382812 7.769531 21.351562 7.957031 19.988281L16.402344 19.988281C16.589844 21.351562 17.746094 22.382812 19.167969 22.382812 20.589844 22.382812 21.746094 21.351562 21.933594 19.988281L23 19.988281C23.519531 19.988281 23.960938 19.546875 24 19.066406L24 13.199219C24 12.839844 23.878906 12.519531 23.640625 12.28125zM17.171875 8.804688L19.167969 8.804688C19.328125 8.804688 19.449219 8.84375 19.566406 8.964844L23 12.796875 17.171875 12.796875zM5.191406 21.585938C4.074219 21.585938 3.195312 20.707031 3.195312 19.585938 3.195312 18.46875 4.074219 17.589844 5.191406 17.589844 6.308594 17.589844 7.1875 18.46875 7.1875 19.585938 7.1875 20.707031 6.308594 21.585938 5.191406 21.585938zM19.167969 21.585938C18.050781 21.585938 17.171875 20.707031 17.171875 19.585938 17.171875 18.46875 18.050781 17.589844 19.167969 17.589844 20.285156 17.589844 21.164062 18.46875 21.164062 19.585938 21.164062 20.707031 20.285156 21.585938 19.167969 21.585938zM23 19.1875L21.933594 19.1875C21.746094 17.824219 20.589844 16.792969 19.167969 16.792969 19.160156 16.792969 19.15625 16.792969 19.148438 16.792969 19.140625 16.792969 19.136719 16.792969 19.128906 16.792969 17.730469 16.792969 16.574219 17.832031 16.371094 19.1875L7.957031 19.1875C7.78125 17.910156 6.753906 16.921875 5.453125 16.804688 5.445312 16.804688 5.433594 16.804688 5.425781 16.800781 5.390625 16.800781 5.359375 16.796875 5.328125 16.796875 5.28125 16.792969 5.238281 16.792969 5.191406 16.792969 5.144531 16.792969 5.101562 16.792969 5.054688 16.796875 5.023438 16.796875 4.992188 16.800781 4.957031 16.800781 4.949219 16.804688 4.9375 16.804688 4.929688 16.804688 3.628906 16.921875 2.601562 17.910156 2.425781 19.1875L2.15625 19.1875C2.078125 19.1875 1.996094 19.109375 1.996094 19.027344L1.996094 15.992188 15.175781 15.992188 15.175781 9.125C15.175781 8.925781 15.335938 8.804688 15.496094 8.804688L16.371094 8.804688 16.371094 12.917969C16.371094 13.277344 16.691406 13.597656 17.050781 13.597656L23.160156 13.597656 23.160156 14.796875 21.164062 14.796875C20.925781 14.796875 20.765625 14.953125 20.765625 15.195312 20.765625 15.433594 20.925781 15.59375 21.164062 15.59375L23.160156 15.59375 23.160156 19.027344C23.160156 19.109375 23.082031 19.1875 23 19.1875zM4.792969 10.402344C4.792969 10.164062 4.632812 10.003906 4.394531 10.003906 4.152344 10.003906 3.992188 10.164062 3.992188 10.402344 3.992188 10.640625 4.152344 10.800781 4.394531 10.800781 4.632812 10.800781 4.792969 10.640625 4.792969 10.402344zM6.390625 10.800781C6.628906 10.800781 6.789062 10.640625 6.789062 10.402344 6.789062 10.164062 6.628906 10.003906 6.390625 10.003906 6.148438 10.003906 5.988281 10.164062 5.988281 10.402344 5.988281 10.640625 6.148438 10.800781 6.390625 10.800781zM8.386719 10.800781C8.625 10.800781 8.785156 10.640625 8.785156 10.402344 8.785156 10.164062 8.625 10.003906 8.386719 10.003906 8.144531 10.003906 7.988281 10.164062 7.988281 10.402344 7.988281 10.640625 8.144531 10.800781 8.386719 10.800781zM8.386719 10.800781"/>
</svg>

<svg xmlns="http://www.w3.org/2000/svg" width="32" height="32" viewBox="0 0 24 24">
    <path d="M4.395 14.395h7.585c.239 0 .399-.16.399-.399V4.812h9.586v1.2c0 .238.16.398.398.398a.8.8 0 0 1 .797.797c0 .441-.36.8-.797.8-.441 0-.8-.359-.8-.8 0-.238-.157-.398-.399-.398-.238 0-.398.16-.398.398 0 .879.718 1.598 1.597 1.598.88 0 1.598-.72 1.598-1.598 0-.738-.512-1.367-1.2-1.547V4.531l1.16-2.316a.368.368 0 0 0 0-.399.48.48 0 0 0-.358-.199H5.19c-.238 0-.398.16-.398.399v5.191H.398c-.238 0-.398.16-.398.398v3.196c0 .12.04.242.16.32l3.992 3.195c.082.04.16.079.243.079zm17.73-10.383H12.18l-.68-.797-.664-.8h12.086zM.797 8.008H5.19c.239 0 .399-.16.399-.403V6.41h2.398c.239 0 .399-.16.399-.398 0-.242-.16-.403-.399-.403H5.59v-.796h3.996c.238 0 .398-.16.398-.399 0-.242-.16-.402-.398-.402H5.59V2.414h4.195l1.797 2.16v9.024H4.551L.797 10.602zm0 0M5.191 18.79a.8.8 0 0 0-.796.796c0 .441.359.8.796.8.438 0 .797-.359.797-.8a.8.8 0 0 0-.797-.797zm0 0M19.168 18.79a.8.8 0 0 0-.797.796c0 .441.36.8.797.8.437 0 .797-.359.797-.8a.8.8 0 0 0-.797-.797zm0 0"/>
    <path d="M23.64 12.281l-3.472-3.836c-.281-.277-.64-.437-1-.437h-3.672c-.64 0-1.121.52-1.121 1.117v6.07H1.199v3.832c0 .52.438.961.957.961h.27a2.77 2.77 0 0 0 2.765 2.395 2.77 2.77 0 0 0 2.766-2.395h8.445a2.77 2.77 0 0 0 2.766 2.395 2.77 2.77 0 0 0 2.766-2.395H23c.52 0 .96-.441 1-.922V13.2c0-.36-.121-.68-.36-.918zm-6.468-3.476h1.996c.16 0 .281.039.398.16L23 12.797h-5.828zm-11.98 12.78a1.978 1.978 0 0 1-1.997-2c0-1.116.88-1.995 1.996-1.995 1.118 0 1.997.879 1.997 1.996 0 1.121-.88 2-1.997 2zm13.976 0a1.978 1.978 0 0 1-1.996-2c0-1.116.879-1.995 1.996-1.995s1.996.879 1.996 1.996c0 1.121-.879 2-1.996 2zM23 19.188h-1.066a2.77 2.77 0 0 0-2.766-2.394h-.04c-1.398 0-2.554 1.039-2.757 2.395H7.957a2.767 2.767 0 0 0-2.504-2.383c-.008 0-.02 0-.027-.004-.035 0-.067-.004-.098-.004-.047-.004-.09-.004-.137-.004-.046 0-.09 0-.136.004-.032 0-.063.004-.098.004-.008.004-.02.004-.027.004a2.767 2.767 0 0 0-2.504 2.383h-.27c-.078 0-.16-.079-.16-.16v-3.036h13.18V9.125c0-.2.16-.32.32-.32h.875v4.113c0 .36.32.68.68.68h6.11v1.199h-1.997c-.238 0-.398.156-.398.398 0 .239.16.399.398.399h1.996v3.433a.17.17 0 0 1-.16.16zm0 0M4.793 10.402c0-.238-.16-.398-.398-.398-.243 0-.403.16-.403.398 0 .239.16.399.403.399.238 0 .398-.16.398-.399zm0 0M6.39 10.8c.239 0 .4-.16.4-.398 0-.238-.161-.398-.4-.398-.242 0-.402.16-.402.398 0 .239.16.399.403.399zm0 0M8.387 10.8c.238 0 .398-.16.398-.398 0-.238-.16-.398-.398-.398-.242 0-.399.16-.399.398 0 .239.157.399.399.399zm0 0"/>
</svg>
